X: 2
T: Reel du Nord
R: reel
M: C|
L: 1/8
K: Bm
|:\
"Bm"FB2{B}B FB2{B}B | FBdB "F#"c3B |\
"Bm"FB2{B}B FB2{B}d | "F#"fedc \
[1 "Bm"B3A |[2,4 "Bm"B2BA ::\
"A"Acec "A/C#"Acec | "D"dcdf "Bm"a4 |
"A"Acec Acec | "D"defd "D#dim"A2BB |\
"Em"Acec "A"Acec | "D"dcdf a4 |\
"A"Acec Acec |dfec [1 "D"d2BB :|[2 "D"d4 |]
% text 4/28/12


